src/asset/cabinet/exchange_icon.svg

<svg width="24" height="24" viewBox="0 0 24 24" fill="none" xmlns="http://www.w3.org/2000/svg">
    <path fill-rule="evenodd" clip-rule="evenodd" d="M21 8.99972C21.5523 8.99972 22 9.44744 22 9.99972V11.9997C22 15.8657 18.866 18.9997 15 18.9997H10.4142L11.7071 20.2926C12.0976 20.6831 12.0976 21.3163 11.7071 21.7068C11.3166 22.0974 10.6834 22.0974 10.2929 21.7068L7.64645 19.0604C7.06066 18.4746 7.06066 17.5248 7.64645 16.9391L10.2929 14.2926C10.6834 13.9021 11.3166 13.9021 11.7071 14.2926C12.0976 14.6831 12.0976 15.3163 11.7071 15.7068L10.4142 16.9997H15C17.7614 16.9997 20 14.7611 20 11.9997V9.99972C20 9.44744 20.4477 8.99972 21 8.99972Z" fill="currentColor"/>
    <path fill-rule="evenodd" clip-rule="evenodd" d="M3 14.9997C2.44771 14.9997 2 14.552 2 13.9997V11.9997C2 8.13373 5.13401 4.99972 9 4.99972H13.5858L12.2929 3.70683C11.9024 3.31631 11.9024 2.68314 12.2929 2.29262C12.6834 1.90209 13.3166 1.90209 13.7071 2.29262L16.3536 4.93906C16.9393 5.52485 16.9393 6.4746 16.3536 7.06038L13.7071 9.70683C13.3166 10.0974 12.6834 10.0974 12.2929 9.70683C11.9024 9.31631 11.9024 8.68314 12.2929 8.29262L13.5858 6.99972H9C6.23858 6.99972 4 9.2383 4 11.9997V13.9997C4 14.552 3.55229 14.9997 3 14.9997Z" fill="currentColor"/>
</svg>

<svg width="24" height="24" fill="none" xmlns="http://www.w3.org/2000/svg"><path fill-rule="evenodd" clip-rule="evenodd" d="M21 9a1 1 0 011 1v2a7 7 0 01-7 7h-4.586l1.293 1.293a1 1 0 01-1.414 1.414L7.646 19.06a1.5 1.5 0 010-2.12l2.647-2.647a1 1 0 011.414 1.414L10.414 17H15a5 5 0 005-5v-2a1 1 0 011-1zM3 15a1 1 0 01-1-1v-2a7 7 0 017-7h4.586l-1.293-1.293a1 1 0 011.414-1.414l2.647 2.646a1.5 1.5 0 010 2.121l-2.647 2.647a1 1 0 11-1.414-1.414L13.586 7H9a5 5 0 00-5 5v2a1 1 0 01-1 1z" fill="currentColor"/></svg>
